X:44
T:Swinging on the Gate/ Ships are Sailing
C:Set attributed to Anne Bowen, for the Dunedin Fiddle Club
T:Swinging on the Gate
R:Reel
L:1/8
M:4/4
K:D
FA||:d2AF D2EF|G2FG FDB,D|G,DFA d2cA|B/c/d ed cABc|
dBAF D2EF|GEFD FDB,D|GE F/E/D EDB,G,|A,B,DE D2FA:||:
d2de faef|dcBA F2ED|B,EE2 GFED|B,DEF GABc|
dcde f/g/a ef|dcBA F2 EF|G/F/E FD EDB,G,|A,B,DE D2|
T:Ships are Sailing
K:G
||:Beed B^cdB|AD F/E/D AD F/E/D|EDEF GFGA|Beef gfed|
Beed B^cdB|AD F/E/D AD F/E/D|EDEF GFGA|1Beed e4:||2Beed e2ef|
||:gfga bgeg|fefg afdf|gfga bgeg|fefg e2ef|
gfga bgeg|fefg afdf|g2bg f2af|1edef g2ef:||2edef g2z2|

